X:1     %Music
T:The Grey Silkie     %Tune name
C:Dr James Waters of Columbia University 
N:  Provided by Mary in Kentucky, based on a Joan Baez version
M:3/4     %Meter
L:1/8     %
K:C
z4 G2 |G4 B2 |A F4 z |F3 G A2 |G4 z 
B |B4 B2 |c4 z A |A c4 z |B4 z
B |c c3 e2 |d4 B2 |A4 c2 |B4 
B2 |A4 E E-|E2 z4|F4 G2 |G6 |]